X: 1520
T: Harry Axford's Schottische
B: australian traditional tunes wiki
M:4/4
L:1/8
R: Schottische
Q: 1/4=100
K:A
V:1 
C>D|"A"E>F E<CE2A>B|c2c>B A>FE2|"F#m"F2C2E>F E>D|"E7"C2B,2B,2C>D|
"A"E>F E<CE2A>B|c2c>B A>FE2|"D"F>G A>F E>F A>B|"A"c2A2A2A>B||
"A"c>B c>d e<cA2|c>B c>d e>f e>c|"D"d2f>d "A"e<a e<c|"B7"B>A B>cB2C>D|
"A"E>F E<CE2A>B|c2c>B A>FE2|"D"F>G A>F E>F A>B|"A"c2A2A4||
% abcbook-tune_id 6342d53a8aa1e4e41831e494


% abcbook-boost 0
% abcbook-tablature 
% abcbook-transpose 
% abcbook-lastupdated 1665324369047
% abcbook-soundfonts 
% abcbook-repeats 1
% NFF Book 2006

